**kern
*staff1
!!pagebreak:original
*I"P1
=1-
*clefG2
*k[]
*M3/4
4g/
2dd\
=2
2dd\
[4dd\
=3
4dd\]
4dd\
4b-\
=4
16ccq/LL
16ddq/JJ
8cc\L
8b-\J
[2cc\
=5
2.cc\]
=6
4g/
2dd\
=7
2dd\
[4dd\
=8
4dd\]
4dd\
4b-\
=9
16ccq/LL
16ddq/JJ
8cc\L
8b-\J
2cc\
*-
